lib/svgs/circle-check-o.svg

<svg xmlns="http://www.w3.org/2000/svg" viewBox="0 0 20 20">
    <path fill="#000" fill-rule="evenodd" d="M10,2 C5.582,2 2,5.582 2,10 C2,14.418 5.582,18 10,18 C14.418,18 18,14.418 18,10 C18,5.582 14.418,2 10,2 L10,2 Z M10,3.2 C13.75,3.2 16.8,6.25 16.8,10 C16.8,13.75 13.75,16.8 10,16.8 C6.25,16.8 3.2,13.75 3.2,10 C3.2,6.25 6.25,3.2 10,3.2 L10,3.2 Z M8.8932,13 C8.7402,13 8.5862,12.941 8.4692,12.824 L5.8822,10.238 C5.6482,10.004 5.6482,9.624 5.8822,9.39 C6.1172,9.155 6.4972,9.155 6.7312,9.39 L8.8932,11.551 L13.2682,7.176 C13.5032,6.941 13.8832,6.941 14.1172,7.176 C14.3512,7.41 14.3512,7.79 14.1172,8.024 L9.3172,12.824 C9.2002,12.941 9.0462,13 8.8932,13 L8.8932,13 Z"/>
</svg>

<svg xmlns="http://www.w3.org/2000/svg" viewBox="0 0 20 20">
    <path fill="#000" fill-rule="evenodd" d="M10 2a8 8 0 1 0 0 16 8 8 0 0 0 0-16m0 1.2c3.75 0 6.8 3.05 6.8 6.8s-3.05 6.8-6.8 6.8-6.8-3.05-6.8-6.8S6.25 3.2 10 3.2M8.893 13a.6.6 0 0 1-.424-.176l-2.587-2.586a.6.6 0 1 1 .85-.848l2.161 2.161 4.375-4.375a.6.6 0 1 1 .85.848l-4.8 4.8a.6.6 0 0 1-.425.176"/>
</svg>
